!!!COM: Music21
!!!OTL: hornpipe_Wade-Hamptons
!!!OMV: hornpipe_Wade-Hamptons
**kern
*clefG2
*k[f#c#]
*D:
*M4/4
=1
12ddL
12ee
12ff#J
=||
4gg
8.ff#L
16eeJk
8.ddL
16ccnJk
8.bL
16aJk
=
8.gL
16f#Jk
8.gL
16aJk
8.bL
16gJk
4d
=
8.dL
16gJk
8.f#L
16gJk
8.dL
16gJk
8.f#L
16gJk
=
8.bL
16ddJk
8.ccnL
16bJk
4a
12ddL
12ee
12ff#J
!!linebreak:original
=
4gg
8.ff#L
16eeJk
8.ddL
16ccnJk
8.bL
16aJk
=
8.gL
16f#Jk
8.gL
16aJk
8.bL
16gJk
4d
=
8.dL
16gJk
8.f#L
16gJk
8.bL
16ggJk
8.ff#L
16eeJk
=
12ddL
12ee
12ddJ
12ccnL
12b
12aJ
4g
4ryy
!!linebreak:original
=||
4gg
8.ff#L
16eeJk
8.ddL
16ccnJk
8.bL
16aJk
=
8.gL
16f#Jk
8.gL
16aJk
8.bL
16gJk
4d
=
8.dL
16gJk
8.f#L
16gJk
8.dL
16gJk
8.f#L
16gJk
=
8.bL
16ddJk
8.ccnL
16bJk
4a
12ddL
12ee
12ff#J
!!linebreak:original
=
4gg
8.ff#L
16eeJk
8.ddL
16ccnJk
8.bL
16aJk
=
8.gL
16f#Jk
8.gL
16aJk
8.bL
16gJk
4d
=
8.dL
16gJk
8.f#L
16gJk
8.bL
16ggJk
8.ff#L
16eeJk
=
12ddL
12ee
12ddJ
12ccnL
12b
12aJ
4g
4ryy
=||
12ddL
12cc#
12ddJ
2.ryy
!!linebreak:original
=||
8.bL
16dJk
8.gL
16bJk
8.ddL
16ggJk
8.ff#L
16ggJk
=
8.eeL
16ccnJk
8.gL
16cc#XJk
8.eeL
16ggJk
8.ff#L
16eeJk
=
8.ddL
16cc#XJk
8.ddL
16eeJk
8.ddL
16ccnJk
8.cc#XL
16bJk
=
8.bL
16aJk
8.aL
16bJk
8.aL
16ddJk
8.cc#L
16ddJk
!!linebreak:original
=
8.bL
16dJk
8.gL
16bJk
8.ddL
16ggJk
8.ff#L
16ggJk
=
8.eeL
16ccnJk
8.gL
16cc#XJk
8.eeL
16ggJk
8.ff#L
16eeJk
=
8.ddL
16ggJk
8.ff#L
16eeJk
12ddL
12ee
12ddJ
12ccnL
12b
12aJ
=
4b
4g
4g
4ryy
!!linebreak:original
=||
8.bL
16dJk
8.gL
16bJk
8.ddL
16ggJk
8.ff#L
16ggJk
=
8.eeL
16ccnJk
8.gL
16cc#XJk
8.eeL
16ggJk
8.ff#L
16eeJk
=
8.ddL
16cc#XJk
8.ddL
16eeJk
8.ddL
16ccnJk
8.cc#XL
16bJk
=
8.bL
16aJk
8.aL
16bJk
8.aL
16ddJk
8.cc#L
16ddJk
!!linebreak:original
=
8.bL
16dJk
8.gL
16bJk
8.ddL
16ggJk
8.ff#L
16ggJk
=
8.eeL
16ccnJk
8.gL
16cc#XJk
8.eeL
16ggJk
8.ff#L
16eeJk
=
8.ddL
16ggJk
8.ff#L
16eeJk
12ddL
12ee
12ddJ
12ccnL
12b
12aJ
=
4b
4g
4g
4ryy
=||
*-
